images/logo html.svg

<svg width="19" height="31" viewBox="0 0 19 31" fill="none" xmlns="http://www.w3.org/2000/svg">
<path fill-rule="evenodd" clip-rule="evenodd" d="M0.719089 0C0.179784 0 0 0.360577 0 0.901442C0 3.24519 0.17979 5.22841 0.359558 7.03129V7.21154C0.719094 9.91587 1.43815 12.0793 2.33699 13.7019C3.77513 16.5865 5.93235 18.3895 8.62887 20.5529V29.2068H3.77514C3.05607 29.2068 3.05608 29.5673 3.05608 29.9278C3.05608 30.2884 3.05607 30.649 3.77514 30.649H9.16818C9.16818 30.649 9.16819 30.649 9.34796 30.649H14.741C15.4601 30.649 15.4601 30.2884 15.4601 29.9278C15.4601 29.5673 15.4601 29.2068 14.741 29.2068H10.067V20.7332C12.7635 18.5697 14.9208 16.7668 16.3589 13.8822C17.2577 12.0793 17.9768 9.91587 18.3364 7.21154V7.03129C18.5161 5.22841 18.6959 3.24519 18.6959 0.901442C18.6959 0.360577 18.3364 0.180244 17.7971 0.180244H0.719089V0ZM5.03351 6.85094C6.83119 6.85094 8.44911 7.21156 9.70749 7.57214C11.6849 8.113 13.3029 8.29331 16.5387 7.93274C16.1791 10.0962 15.6398 11.7188 14.9208 12.9808C13.6624 15.5048 11.6849 17.3077 9.16818 19.2909C6.65143 17.3077 4.67399 15.5048 3.41561 12.9808C2.69654 11.5385 1.97746 9.73553 1.61793 7.39178C4.13468 6.67063 4.13467 6.85094 5.03351 6.85094Z" fill="white"/>
</svg>

<svg id="Capa_1" data-name="Capa 1" xmlns="http://www.w3.org/2000/svg" viewBox="0 0 18.7 30.65"><defs><style>.cls-1{fill:#ffbcf4;fill-rule:evenodd;}</style></defs><path class="cls-1" d="M.72,0C.18,0,0,.36,0,.9A59.09,59.09,0,0,0,.36,7v.18a18.37,18.37,0,0,0,2,6.49c1.44,2.89,3.59,4.69,6.29,6.85v8.66H3.78c-.72,0-.72.36-.72.72s0,.72.72.72h11c.72,0,.72-.36.72-.72s0-.72-.72-.72H10.07V20.73c2.69-2.16,4.85-4,6.29-6.85a20.8,20.8,0,0,0,2-6.67V7A59.09,59.09,0,0,0,18.7.9c0-.54-.36-.72-.9-.72H.72ZM5,6.85a17.05,17.05,0,0,1,4.68.72,16,16,0,0,0,6.83.36A15,15,0,0,1,14.92,13c-1.26,2.52-3.24,4.33-5.75,6.31-2.52-2-4.5-3.79-5.75-6.31a18.44,18.44,0,0,1-1.8-5.59A7.58,7.58,0,0,1,5,6.85Z" transform="translate(0 0)"/></svg>
